public/img/removal/remove-in-progress-icon.svg

<svg fill="none" height="18" viewBox="0 0 18 18" width="18" xmlns="http://www.w3.org/2000/svg"><path d="m4.91988 5.98495c-.345-.345-.9375-.285-1.17.1425-.21.3825-.375.7725-.5025 1.185-.1425.4725.2325.9375.72.9375h.0075c.3225 0 .615-.21.705-.525.09-.3.21-.5925.36-.8775.165-.2775.1125-.63-.12-.8625zm-.9375 3.765h-.015c-.4875 0-.8625.46505-.72.93755.12.405.285.8025.495 1.185.2325.4275.8325.495 1.1775.15.225-.2325.285-.5775.1275-.8625-.15-.2775-.27-.57-.36-.87-.09-.33005-.3825-.54005-.705-.54005zm2.1375 4.51505c.3825.21.78.375 1.1925.495.465.135.93-.24.93-.72v-.0225c0-.3225-.21-.615-.525-.705-.3-.09-.585-.21-.8625-.36-.285-.1575-.645-.105-.87.1275l-.0225.0225c-.3375.3375-.27.93.1575 1.1625zm3.63-11.21255v-.495c0-.6675-.81-1.005-1.2825-.5325l-1.59 1.5975c-.3.3-.3.78 0 1.0725l1.5975 1.56c.4725.465 1.275.1275 1.275-.54v-1.1475c2.13002.36 3.75002 2.205 3.75002 4.4325 0 2.04755-1.365 3.76505-3.24 4.31255-.30752.09-.51002.3825-.51002.705v.015c0 .4875.45752.855.92252.72 2.505-.72 4.3275-3.0225 4.3275-5.75255 0-3.06-2.2875-5.58-5.25002-5.9475z" fill="#0060df"/></svg>

<svg width="18" height="18" viewBox="0 0 18 18" fill="none" xmlns="http://www.w3.org/2000/svg">
<title>Circular arrow</title>
<path d="M4.91988 5.98495C4.57488 5.63995 3.98238 5.69995 3.74988 6.12745C3.53988 6.50995 3.37488 6.89995 3.24738 7.31245C3.10488 7.78495 3.47988 8.24995 3.96738 8.24995H3.97488C4.29738 8.24995 4.58988 8.03995 4.67988 7.72495C4.76988 7.42495 4.88988 7.13245 5.03988 6.84745C5.20488 6.56995 5.15238 6.21745 4.91988 5.98495ZM3.98238 9.74995H3.96738C3.47988 9.74995 3.10488 10.215 3.24738 10.6875C3.36738 11.0925 3.53238 11.49 3.74238 11.8725C3.97488 12.3 4.57488 12.3675 4.91988 12.0225C5.14488 11.79 5.20488 11.445 5.04738 11.16C4.89738 10.8825 4.77738 10.59 4.68738 10.29C4.59738 9.95995 4.30488 9.74995 3.98238 9.74995ZM6.11988 14.265C6.50238 14.475 6.89988 14.64 7.31238 14.76C7.77738 14.895 8.24238 14.52 8.24238 14.04V14.0175C8.24238 13.695 8.03238 13.4025 7.71738 13.3125C7.41738 13.2225 7.13238 13.1025 6.85488 12.9525C6.56988 12.795 6.20988 12.8475 5.98488 13.08L5.96238 13.1025C5.62488 13.44 5.69238 14.0325 6.11988 14.265ZM9.74988 3.05245V2.55745C9.74988 1.88995 8.93988 1.55245 8.46738 2.02495L6.87738 3.62245C6.57738 3.92245 6.57738 4.40245 6.87738 4.69495L8.47488 6.25495C8.94738 6.71995 9.74988 6.38245 9.74988 5.71495V4.56745C11.8799 4.92745 13.4999 6.77245 13.4999 8.99995C13.4999 11.0475 12.1349 12.765 10.2599 13.3125C9.95238 13.4025 9.74988 13.695 9.74988 14.0175V14.0325C9.74988 14.52 10.2074 14.8875 10.6724 14.7525C13.1774 14.0325 14.9999 11.73 14.9999 8.99995C14.9999 5.93995 12.7124 3.41995 9.74988 3.05245Z" fill="#0060DF"/>
</svg>
